X:16
T:135. Private Ass and Cart
S:Mike Rafferty
H:a version of “Callahan’s” - from Barrell Rafferty
N:follows #129 Mike Flynn's
D:Mike and Mary Rafferty, the Old Fireside Music.
Z:Lesl
M:C|
K:D
F~F2A GE~E2|FDDF ABAG|F~F2D GE~E2|A2GE EDDE|
F~F2D GE~E2|FDDF A2AG|F~F2D GE~E2|A2GE EDDz|
(3Bcd ec d2ed|cAGE ~A3z|(3Bcd ec dged|cAGE EDDz|
(3Bcd ec dzed|cAGE ~A3B|c2cd e~e2d|1 cAGE EDDE:|2 cAGE EDDA|D8||

